;FLAVOR:Marlin
;TIME:4400
;Filament used: 6.47465m
;Layer height: 0.32
;MINX:59.92
;MINY:63.909
;MINZ:0.32
;MAXX:169.081
;MAXY:174.118
;MAXZ:181.12
;Generated with Cura_SteamEngine 4.13.1
M140 S50
M105
M190 S50
M104 S200
M105
M109 S200
M82 ;absolute extrusion mode
; Ender 3 Custom Start G-code
G92 E0 ; Reset Extruder
G28 ; Home all axes
G1 Z2.0 F3000 ; Move Z Axis up little to prevent scratching of Heat Bed
G1 X0.1 Y20 Z0.3 F5000.0 ; Move to start position
G1 X0.1 Y200.0 Z0.3 F1500.0 E15 ; Draw the first line
G1 X0.4 Y200.0 Z0.3 F5000.0 ; Move to side a little
G1 X0.4 Y20 Z0.3 F1500.0 E30 ; Draw the second line
G92 E0 ; Reset Extruder
G1 Z2.0 F3000 ; Move Z Axis up little to prevent scratching of Heat Bed
G1 X5 Y20 Z0.3 F5000.0 ; Move over to prevent blob squish
G92 E0
G92 E0
G1 F2700 E-5
;LAYER_COUNT:566
;LAYER:0
M107
;MESH:Holder Sculture Jose v1.stl
G0 F6000 X114.519 Y122.86 Z0.32
;TYPE:WALL-INNER
G1 F2700 E0
G1 F1200 X115.647 Y122.713 E0.12107
G1 X116.7 Y122.275 E0.24245
G1 X117.608 Y121.576 E0.36441
G1 X118.295 Y120.68 E0.48458
G1 X118.73 Y119.628 E0.60574
G1 X118.879 Y118.5 E0.72684
G1 X118.73 Y117.372 E0.84794
G1 X118.295 Y116.319 E0.9692
G1 X117.595 Y115.411 E1.09123
G1 X116.7 Y114.724 E1.21131
G1 X115.647 Y114.287 E1.33265
G1 X114.519 Y114.14 E1.45372
G1 X113.391 Y114.287 E1.57479
G1 X112.338 Y114.725 E1.69618
G1 X111.429 Y115.424 E1.81822
G1 X110.743 Y116.32 E1.93832
G1 X110.306 Y117.372 E2.05957
G1 X110.159 Y118.5 E2.18064
G1 X110.306 Y119.628 E2.30171
G1 X110.744 Y120.681 E2.42309
G1 X111.442 Y121.589 E2.54499
G1 X112.339 Y122.276 E2.66524
G1 X113.391 Y122.713 E2.78648
G1 X114.519 Y122.86 E2.90755
G0 F6000 X114.519 Y122.053
;TYPE:WALL-OUTER
G1 F1200 X115.438 Y121.933 E3.0062
G1 X116.296 Y121.577 E3.10506
G1 X117.037 Y121.006 E3.20463
G1 X117.596 Y120.277 E3.3024
G1 X117.951 Y119.419 E3.40123
G1 X118.072 Y118.5 E3.49988
G1 X117.951 Y117.581 E3.59854
G1 X117.596 Y116.723 E3.69737
G1 X117.025 Y115.982 E3.79693
G1 X116.296 Y115.423 E3.89471
G1 X115.438 Y115.067 E3.99357
G1 X114.519 Y114.947 E4.09222
G1 X113.6 Y115.067 E4.19086
G1 X112.742 Y115.423 E4.28973
G1 X112 Y115.994 E4.38938
G1 X111.442 Y116.723 E4.48709
G1 X111.086 Y117.581 E4.58595
G1 X110.966 Y118.5 E4.68459
G1 X111.086 Y119.419 E4.78324
G1 X111.442 Y120.277 E4.8821
G1 X112.012 Y121.018 E4.9816
G1 X112.742 Y121.577 E5.07946
G1 X113.6 Y121.933 E5.17833
G1 X114.519 Y122.053 E5.27697
G0 F6000 X114.519 Y122.933
G1 F2700 E0.27697
G0 F6000 X114.519 Y123.253
G0 X114.519 Y120.979
G0 X115.469 Y174.118
G0 X115.427 Y171.845
G0 X117.5 Y172.216
;TYPE:WALL-INNER
G1 F2700 E5.27697
G1 F1200 X113.519 Y172.29 E5.70075
G1 X109.558 Y172.069 E6.12299
G1 X105.622 Y171.558 E6.54542
G1 X101.703 Y170.75 E6.9713
G1 X97.902 Y169.669 E7.3919
G1 X94.153 Y168.295 E7.81686
G1 X90.531 Y166.656 E8.23999
G1 X87.055 Y164.762 E8.66131
G1 X83.699 Y162.598 E9.08631
G1 X80.544 Y160.214 E9.50719
G1 X77.533 Y157.57 E9.93368
G1 X74.765 Y154.75 E10.35425
G1 X72.193 Y151.71 E10.77807
G1 X69.856 Y148.493 E11.20127
G1 X67.763 Y145.114 E11.62431
G1 X65.92 Y141.577 E12.0488
G1 X64.353 Y137.938 E12.47049
G1 X63.055 Y134.177 E12.89395
G1 X62.036 Y130.328 E13.31772
G1 X61.308 Y126.437 E13.73903
G1 X60.866 Y122.465 E14.16439
G1 X60.72 Y118.5 E14.58668
G1 X60.866 Y114.535 E15.00898
G1 X61.308 Y110.563 E15.43433
G1 X62.036 Y106.672 E15.85565
G1 X63.055 Y102.823 E16.27942
G1 X64.353 Y99.062 E16.70288
G1 X65.92 Y95.423 E17.12457
G1 X67.763 Y91.886 E17.54906
G1 X69.856 Y88.507 E17.9721
G1 X72.196 Y85.287 E18.39575
G1 X74.765 Y82.25 E18.81912
G1 X77.533 Y79.43 E19.23969
G1 X80.544 Y76.786 E19.66617
G1 X83.699 Y74.402 E20.08705
G1 X87.055 Y72.238 E20.51206
G1 X90.531 Y70.344 E20.93337
G1 X94.153 Y68.705 E21.3565
G1 X97.902 Y67.331 E21.78147
G1 X101.703 Y66.25 E22.20206
G1 X105.622 Y65.442 E22.62794
G1 X109.558 Y64.931 E23.05038
G1 X113.519 Y64.71 E23.47261
G1 X117.5 Y64.784 E23.89639
G1 X121.469 Y65.152 E24.32063
G1 X125.378 Y65.808 E24.7425
G1 X129.239 Y66.754 E25.16559
G1 X133.019 Y67.982 E25.5886
G1 X136.707 Y69.489 E26.01263
G1 X140.263 Y71.261 E26.43549
G1 X143.678 Y73.288 E26.85816
G1 X146.944 Y75.57 E27.28221
G1 X150.016 Y78.074 E27.70403
G1 X152.909 Y80.81 E28.12783
G1 X155.593 Y83.754 E28.55184
G1 X158.046 Y86.88 E28.97475
G1 X160.256 Y90.173 E29.39685
G1 X162.227 Y93.636 E29.82094
G1 X163.935 Y97.228 E30.24427
G1 X165.369 Y100.931 E30.66691
G1 X166.529 Y104.742 E31.09089
G1 X167.4 Y108.605 E31.51236
G1 X167.987 Y112.545 E31.93633
G1 X168.281 Y116.516 E32.36013
G1 X168.281 Y120.484 E32.78246
G1 X167.987 Y124.455 E33.20626
G1 X167.4 Y128.395 E33.63023
G1 X166.529 Y132.258 E34.0517
G1 X165.369 Y136.069 E34.47569
G1 X163.935 Y139.772 E34.89833
G1 X162.227 Y143.364 E35.32165
G1 X160.256 Y146.827 E35.74575
G1 X158.046 Y150.12 E36.16784
G1 X155.593 Y153.246 E36.59075
G1 X152.909 Y156.19 E37.01476
G1 X150.016 Y158.926 E37.43856
G1 X146.944 Y161.43 E37.86038
G1 X143.678 Y163.712 E38.28443
G1 X140.263 Y165.739 E38.7071
G1 X136.707 Y167.511 E39.12997
G1 X133.019 Y169.018 E39.55399
G1 X129.239 Y170.246 E39.97701
G1 X125.378 Y171.192 E40.4001
G1 X121.469 Y171.848 E40.82196
G1 X117.5 Y172.216 E41.2462
G0 F6000 X117.548 Y173.015
;TYPE:WALL-OUTER
G1 F1200 X113.503 Y173.091 E41.6768
G1 X109.492 Y172.867 E42.10436
G1 X105.478 Y172.346 E42.53517
G1 X101.525 Y171.531 E42.96474
G1 X97.652 Y170.429 E43.39332
G1 X93.844 Y169.034 E43.82495
G1 X90.181 Y167.376 E44.25289
G1 X86.643 Y165.448 E44.68173
G1 X83.245 Y163.257 E45.11205
G1 X80.034 Y160.831 E45.54038
G1 X76.985 Y158.153 E45.97229
G1 X74.168 Y155.283 E46.40031
G1 X71.569 Y152.211 E46.82858
G1 X69.191 Y148.938 E47.25917
G1 X67.068 Y145.51 E47.68833
G1 X65.195 Y141.917 E48.11958
G1 X63.608 Y138.23 E48.5468
G1 X62.29 Y134.411 E48.97679
G1 X61.256 Y130.505 E49.40684
G1 X60.516 Y126.55 E49.83508
G1 X60.068 Y122.53 E50.26559
G1 X59.92 Y118.5 E50.6948
G1 X60.068 Y114.47 E51.12402
G1 X60.516 Y110.45 E51.55452
G1 X61.256 Y106.495 E51.98277
G1 X62.29 Y102.589 E52.41281
G1 X63.608 Y98.77 E52.8428
G1 X65.195 Y95.083 E53.27003
G1 X67.068 Y91.49 E53.70128
G1 X69.191 Y88.062 E54.13043
G1 X71.572 Y84.785 E54.56155
G1 X74.168 Y81.717 E54.9893
G1 X76.985 Y78.847 E55.41732
G1 X80.034 Y76.169 E55.84923
G1 X83.245 Y73.743 E56.27756
G1 X86.643 Y71.552 E56.70788
G1 X90.181 Y69.624 E57.13672
G1 X93.844 Y67.966 E57.56466
G1 X97.652 Y66.571 E57.99629
G1 X101.525 Y65.469 E58.42487
G1 X105.478 Y64.654 E58.85444
G1 X109.492 Y64.133 E59.28525
G1 X113.503 Y63.909 E59.71281
G1 X117.548 Y63.985 E60.14341
G1 X121.566 Y64.357 E60.57288
G1 X125.542 Y65.024 E61.00197
G1 X129.457 Y65.984 E61.431
G1 X133.3 Y67.232 E61.86104
G1 X137.031 Y68.757 E62.29003
G1 X140.644 Y70.557 E62.71965
G1 X144.114 Y72.617 E63.14915
G1 X147.422 Y74.928 E63.57864
G1 X150.548 Y77.476 E64.00787
G1 X153.479 Y80.248 E64.43724
G1 X156.203 Y83.236 E64.86758
G1 X158.694 Y86.411 E65.29709
G1 X160.937 Y89.752 E65.72538
G1 X162.939 Y93.27 E66.1562
G1 X164.669 Y96.909 E66.58504
G1 X166.124 Y100.666 E67.01385
G1 X167.302 Y104.536 E67.4444
G1 X168.187 Y108.46 E67.87253
G1 X168.783 Y112.462 E68.30317
G1 X169.081 Y116.484 E68.73242
G1 X169.081 Y120.516 E69.16155
G1 X168.783 Y124.538 E69.5908
G1 X168.187 Y128.54 E70.02144
G1 X167.302 Y132.464 E70.44957
G1 X166.124 Y136.334 E70.88012
G1 X164.669 Y140.091 E71.30893
G1 X162.939 Y143.73 E71.73778
G1 X160.937 Y147.248 E72.16859
G1 X158.694 Y150.589 E72.59688
G1 X156.203 Y153.764 E73.0264
G1 X153.479 Y156.752 E73.45674
G1 X150.548 Y159.524 E73.88611
G1 X147.422 Y162.072 E74.31534
G1 X144.114 Y164.383 E74.74482
G1 X140.644 Y166.443 E75.17432
G1 X137.031 Y168.243 E75.60394
G1 X133.3 Y169.768 E76.03293
G1 X129.457 Y171.016 E76.46298
G1 X125.542 Y171.976 E76.892
G1 X121.566 Y172.643 E77.32109
G1 X117.548 Y173.015 E77.75057
G0 F6000 X117.5 Y172.137
G0 X117.466 Y171.426
;TYPE:SKIN
G1 F1200 X113.521 Y171.5 E78.17052
G1 X109.648 Y171.283 E78.58338
G1 X105.752 Y170.778 E79.00151
G1 X101.887 Y169.982 E79.4215
G1 X98.149 Y168.918 E79.83515
G1 X94.439 Y167.558 E80.25571
G1 X90.883 Y165.949 E80.67112
G1 X87.466 Y164.087 E81.08529
G1 X84.147 Y161.948 E81.50555
G1 X81.049 Y159.606 E81.91889
G1 X78.064 Y156.985 E82.34168
G1 X75.354 Y154.224 E82.75344
G1 X72.821 Y151.23 E83.17084
G1 X70.512 Y148.051 E83.58902
G1 X68.45 Y144.723 E84.00571
G1 X66.626 Y141.221 E84.42596
G1 X65.093 Y137.662 E84.8384
G1 X63.813 Y133.951 E85.25621
G1 X62.806 Y130.146 E85.67512
G1 X62.092 Y126.336 E86.08769
G1 X61.654 Y122.404 E86.50877
G1 X61.512 Y118.5 E86.92456
G1 X61.654 Y114.596 E87.34034
G1 X62.093 Y110.658 E87.76207
G1 X62.806 Y106.854 E88.17399
G1 X63.813 Y103.049 E88.59291
G1 X65.093 Y99.338 E89.01071
G1 X66.626 Y95.779 E89.42315
G1 X68.45 Y92.277 E89.84341
G1 X70.52 Y88.936 E90.26172
G1 X72.818 Y85.774 E90.67774
G1 X75.354 Y82.776 E91.09568
G1 X78.064 Y80.015 E91.50744
G1 X81.049 Y77.394 E91.93023
G1 X84.147 Y75.052 E92.34357
G1 X87.466 Y72.913 E92.76383
G1 X90.883 Y71.051 E93.178
G1 X94.439 Y69.442 E93.59341
G1 X98.149 Y68.082 E94.01397
G1 X101.887 Y67.018 E94.42762
G1 X105.752 Y66.222 E94.84761
G1 X109.648 Y65.717 E95.26574
G1 X113.521 Y65.5 E95.6786
G1 X117.466 Y65.574 E96.09855
G1 X121.361 Y65.935 E96.51488
G1 X125.207 Y66.58 E96.92994
G1 X129.036 Y67.519 E97.34954
G1 X132.751 Y68.725 E97.76525
G1 X136.377 Y70.206 E98.18213
G1 X139.887 Y71.957 E98.59961
G1 X143.244 Y73.949 E99.01507
G1 X146.473 Y76.205 E99.43431
G1 X149.489 Y78.664 E99.84848
G1 X152.346 Y81.366 E100.26701
G1 X154.985 Y84.258 E100.6837
G1 X157.412 Y87.352 E101.10223
G1 X159.579 Y90.583 E101.51629
G1 X161.532 Y94.013 E101.93639
G1 X163.204 Y97.528 E102.35067
G1 X164.621 Y101.189 E102.76848
G1 X165.767 Y104.954 E103.18735
G1 X166.62 Y108.735 E103.59989
G1 X167.201 Y112.638 E104.01987
G1 X167.491 Y116.548 E104.43716
G1 X167.491 Y120.452 E104.85268
G1 X167.201 Y124.362 E105.26997
G1 X166.62 Y128.265 E105.68995
G1 X165.767 Y132.046 E106.10249
G1 X164.621 Y135.811 E106.52136
G1 X163.206 Y139.468 E106.9387
G1 X161.532 Y142.987 E107.35346
G1 X159.579 Y146.417 E107.77355
G1 X157.412 Y149.648 E108.18761
G1 X154.985 Y152.742 E108.60614
G1 X152.346 Y155.634 E109.02283
G1 X149.489 Y158.336 E109.44136
G1 X146.473 Y160.795 E109.85553
G1 X143.244 Y163.051 E110.27477
G1 X139.887 Y165.043 E110.69023
G1 X136.377 Y166.794 E111.10772
G1 X132.751 Y168.275 E111.52459
G1 X129.036 Y169.481 E111.9403
G1 X125.207 Y170.42 E112.35991
G1 X121.361 Y171.065 E112.77496
G1 X117.466 Y171.426 E113.19129
G1 F2700 E108.19129
G0 F6000 X117.509 Y171.904
G0 X115.429 Y171.845
G0 X115.471 Y174.118
G0 X114.519 Y120.979
G0 X114.519 Y123.253
G1 F2700 E113.19129
G0 F6000 X114.519 Y123.656
G1 F1200 X115.853 Y123.483 E113.33446
G1 X117.099 Y122.964 E113.47812
G1 X118.172 Y122.139 E113.62218
G1 X118.986 Y121.079 E113.76442
G1 X119.5 Y119.834 E113.90778
G1 X119.675 Y118.5 E114.05098
G1 X119.5 Y117.166 E114.19417
G1 X118.985 Y115.92 E114.33767
G1 X118.158 Y114.847 E114.48186
G1 X117.099 Y114.034 E114.62395
G1 X115.853 Y113.517 E114.76753
G1 X114.519 Y113.344 E114.9107
G1 X113.185 Y113.517 E115.05387
G1 X111.939 Y114.036 E115.19753
G1 X110.865 Y114.861 E115.34167
G1 X110.053 Y115.921 E115.48378
G1 X109.536 Y117.166 E115.62726
G1 X109.363 Y118.5 E115.77043
G1 X109.536 Y119.834 E115.9136
G1 X110.055 Y121.08 E116.05726
G1 X110.879 Y122.153 E116.20125
G1 X111.94 Y122.966 E116.34352
G1 X113.185 Y123.483 E116.487
G1 X114.519 Y123.656 E116.63017
G1 F2700 E111.63017
G0 F6000 X114.52 Y123.172
G0 X113.289 Y123.094
G0 X113.874 Y120.895
G0 X82.412 Y163.961
G0 X83.782 Y162.147
G0 X80.941 Y160.125
G1 F2700 E116.63017
G0 F6000 X81.424 Y159.489
G1 F1200 X73.654 Y151.718 E117.79977
G0 F6000 X73.043 Y152.234
G0 X69.835 Y147.87
G0 X70.516 Y147.45
G1 F1200 X85.517 Y162.45 E120.05762
G0 F6000 X85.083 Y163.121
G0 X88.084 Y164.968
G0 X88.466 Y164.267
G1 F1200 X68.69 Y144.492 E123.03419
G0 F6000 X67.982 Y144.861
G0 X66.753 Y142.502
G0 X67.462 Y142.133
G1 F1200 X90.952 Y165.622 E126.56979
G0 F6000 X90.57 Y166.322
G0 X92.7 Y167.296
G0 X93.03 Y166.569
G1 F1200 X66.439 Y139.978 E130.57222
G0 F6000 X65.706 Y140.293
G0 X64.849 Y138.304
G0 X65.582 Y137.989
G1 F1200 X95.021 Y167.429 E135.0034
G0 F6000 X94.745 Y168.18
G0 X96.531 Y168.835
G0 X96.807 Y168.083
G1 F1200 X64.928 Y136.205 E139.80169
G0 F6000 X64.173 Y136.464
G0 X63.577 Y134.738
G0 X64.333 Y134.478
G1 F1200 X98.553 Y168.698 E144.95242
G0 F6000 X98.333 Y169.469
G0 X99.916 Y169.919
G0 X100.135 Y169.149
G1 F1200 X63.858 Y132.872 E150.41277
G0 F6000 X63.084 Y133.076
G0 X62.677 Y131.537
G0 X63.451 Y131.333
G1 F1200 X101.717 Y169.599 E156.1725
G0 F6000 X101.498 Y170.369
G0 X103.004 Y170.7
G0 X103.166 Y169.917
G1 F1200 X63.071 Y129.821 E162.2076
G0 F6000 X62.284 Y129.967
G0 X62.023 Y128.574
G0 X62.809 Y128.428
G1 F1200 X104.591 Y170.211 E168.49663
G0 F6000 X104.429 Y170.994
G0 X105.895 Y171.28
G0 X105.998 Y170.486
G1 F1200 X62.548 Y127.036 E175.03664
G0 F6000 X61.763 Y127.182
G0 X61.547 Y125.788
G0 X62.343 Y125.7
G1 F1200 X107.297 Y170.654 E181.80304
G0 F6000 X107.194 Y171.448
G0 X108.494 Y171.617
G0 X108.597 Y170.822
G1 F1200 X62.201 Y124.426 E188.78648
G0 F6000 X61.406 Y124.514
G0 X61.264 Y123.241
G0 X62.059 Y123.153
G1 F1200 X109.88 Y170.974 E195.98441
G0 F6000 X109.835 Y171.773
G0 X111.034 Y171.84
G0 X111.079 Y171.042
G1 F1200 X61.955 Y121.918 E203.37847
G0 F6000 X61.158 Y121.946
G0 X61.115 Y120.772
G0 X61.913 Y120.744
G1 F1200 X112.278 Y171.109 E210.95932
G0 F6000 X112.233 Y171.907
G0 X113.432 Y171.974
G0 X113.477 Y171.177
G1 F1200 X61.871 Y119.571 E218.72696
G0 F6000 X61.072 Y119.599
G0 X61.037 Y118.375
G0 X61.835 Y118.404
G1 F1200 X114.59 Y171.159 E226.66754
G0 F6000 X114.604 Y171.96
G0 X115.715 Y171.94
G0 X115.701 Y171.138
G1 F1200 X61.875 Y117.312 E234.76934
G0 F6000 X61.077 Y117.283
G0 X61.117 Y116.191
G0 X61.914 Y116.22
G1 F1200 X116.811 Y171.117 E243.03233
G0 F6000 X116.825 Y171.919
G0 X117.963 Y171.862
G0 X117.89 Y171.064
G1 F1200 X61.954 Y115.129 E251.45164
G0 F6000 X61.157 Y115.1
G0 X61.239 Y113.987
G0 X62.033 Y114.076
G1 F1200 X118.925 Y170.968 E260.01492
G0 F6000 X118.998 Y171.766
G0 X120.033 Y171.67
G0 X119.96 Y170.872
G1 F1200 X62.146 Y113.058 E268.71698
G0 F6000 X61.352 Y112.969
G0 X61.466 Y111.951
G0 X62.26 Y112.04
G1 F1200 X120.995 Y170.775 E277.55767
G0 F6000 X121.985 Y170.634
G1 F1200 X62.373 Y111.022 E286.53036
G0 F6000 X62.531 Y110.049
G1 F1200 X122.953 Y170.471 E295.62497
G0 F6000 X123.923 Y170.309
G1 F1200 X62.71 Y109.096 E304.83864
G0 F6000 X62.889 Y108.144
G1 F1200 X124.892 Y170.146 E314.17114
G0 F6000 X125.816 Y169.939
G1 F1200 X63.067 Y107.191 E323.61593
G0 F6000 X63.288 Y106.28
G1 F1200 X126.724 Y169.716 E333.16421
G0 F6000 X127.633 Y169.494
G1 F1200 X63.525 Y105.385 E342.8137
G0 F6000 X63.761 Y104.491
G1 F1200 X128.542 Y169.271 E352.56434
G0 F6000 X129.42 Y169.018
G1 F1200 X63.998 Y103.596 E362.41154
G0 F6000 X64.261 Y102.727
G1 F1200 X130.274 Y168.741 E372.34778
G0 F6000 X131.128 Y168.463
G1 F1200 X64.551 Y101.886 E382.36883
G0 F6000 X64.841 Y101.045
G1 F1200 X131.982 Y168.186 E392.47477
G0 F6000 X132.825 Y167.898
G1 F1200 X65.131 Y100.204 E402.66395
G0 F6000 X65.426 Y99.367
G1 F1200 X133.629 Y167.57 E412.92974
G0 F6000 X134.432 Y167.242
G1 F1200 X65.767 Y98.577 E423.26507
G0 F6000 X66.108 Y97.786
G1 F1200 X135.235 Y166.913 E433.66994
G0 F6000 X136.038 Y166.585
G1 F1200 X66.448 Y96.995 E444.1445
G0 F6000 X66.789 Y96.205
G1 F1200 X136.805 Y166.221 E454.68318
G0 F6000 X137.559 Y165.844
G1 F1200 X67.16 Y95.444 E465.27959
G0 F6000 X67.547 Y94.7
G1 F1200 X138.315 Y165.467 E475.93138
G0 F6000 X139.069 Y165.091
G1 F1200 X67.935 Y93.956 E486.63842
G0 F6000 X68.322 Y93.212
G1 F1200 X139.819 Y164.709 E497.40002
G0 F6000 X140.528 Y164.287
G1 F1200 X68.709 Y92.468 E508.21009
G0 F6000 X69.14 Y91.767
G1 F1200 X141.239 Y163.867 E519.06237
G0 F6000 X141.949 Y163.445
G1 F1200 X69.573 Y91.069 E529.95628
G0 F6000 X70.006 Y90.371
G1 F1200 X142.659 Y163.024 E540.89187
G0 F6000 X143.351 Y162.584
G1 F1200 X70.439 Y89.673 E551.86638
G0 F6000 X70.881 Y88.983
G1 F1200 X144.017 Y162.119 E562.87468
G0 F6000 X144.683 Y161.653
G1 F1200 X71.356 Y88.327 E573.91165
G0 F6000 X71.833 Y87.672
G1 F1200 X145.348 Y161.187 E584.977
G0 F6000 X146.014 Y160.722
